X:39
T:Menuet
R:Menuet
S:http://www.dafo.dk/spillemand/
N:n3
B:Rasmus Storms nodebog - 1760
O:Danmark
Z:<anamnese@laposte.net>
M:3/4
L:1/8
Q:1/4=135
K:C
d2 AdAd | e2 AeAe | f2 gfed | edef e2 | d2 Addg |
 e2 de c2 | f2 cfcf | g2 cgcg | a2 _baga | f6 | a2 fa | f2 gfef | d6 ||
